sprites/streets-v8/_svg/rail-metro-15.svg

<?xml version="1.0" encoding="UTF-8" standalone="no"?>
<svg
   xmlns:dc="http://purl.org/dc/elements/1.1/"
   xmlns:cc="http://creativecommons.org/ns#"
   xmlns:rdf="http://www.w3.org/1999/02/22-rdf-syntax-ns#"
   xmlns:svg="http://www.w3.org/2000/svg"
   xmlns="http://www.w3.org/2000/svg"
   id="svg2"
   width="23"
   height="23"
   viewBox="0 0 23 23"
   version="1.1">
  <metadata
     id="metadata14">
    <rdf:RDF>
      <cc:Work
         rdf:about="">
        <dc:format>image/svg+xml</dc:format>
        <dc:type
           rdf:resource="http://purl.org/dc/dcmitype/StillImage" />
      </cc:Work>
    </rdf:RDF>
  </metadata>
  <defs
     id="defs12" />
  <rect
     id="rect4"
     ry="3"
     rx="3"
     height="23"
     width="23"
     y="0"
     x="0"
     style="fill:#ffffff;stroke:none;" />
  <rect
     id="rect6"
     ry="2"
     rx="2"
     height="21"
     width="21"
     y="1"
     x="1"
     style="fill:#9c8ea4;stroke:none;" />
  <g
     id="g8"
     transform="translate(4,4)">
    <metadata     id="metadata8"><rdf:RDF><cc:Work         rdf:about=""><dc:format>image/svg+xml</dc:format><dc:type           rdf:resource="http://purl.org/dc/dcmitype/StillImage" /><dc:title /></cc:Work></rdf:RDF></metadata><defs     id="defs6" /><path     id="path5258"     d="M 5.5 0 C 5.5 0 4.75 0 4.5 1 L 3 6.5 L 3 10 C 3 11 4 11 4 11 L 11 11 C 11 11 12 11 12 10 L 12 6.5 L 10.5 1 C 10.227273 0 9.5 0 9.5 0 L 5.5 0 z M 6.5 1.5 L 8.5 1.5 C 8.5 1.5 9.0357143 1.5 9.25 2.5 L 10 6 C 10.21464 7.0016547 9 7 9 7 L 6 7 C 6 7 4.7853597 7.0016548 5 6 L 5.75 2.5 C 5.9642857 1.5 6.5 1.5 6.5 1.5 z M 5 8 A 1 1 0 0 1 6 9 A 1 1 0 0 1 5 10 A 1 1 0 0 1 4 9 A 1 1 0 0 1 5 8 z M 6.75 8 L 8.25 8 C 8.3885 8 8.5 8.1115 8.5 8.25 C 8.5 8.3885 8.3885 8.5 8.25 8.5 L 6.75 8.5 C 6.6115 8.5 6.5 8.3885 6.5 8.25 C 6.5 8.1115 6.6115 8 6.75 8 z M 10 8 A 1 1 0 0 1 11 9 A 1 1 0 0 1 10 10 A 1 1 0 0 1 9 9 A 1 1 0 0 1 10 8 z M 4.125 12 L 3 15 L 4.5 15 L 4.875 14 L 10.125 14 L 10.5 15 L 12 15 L 10.875 12 L 9.375 12 L 9.75 13 L 5.25 13 L 5.625 12 L 4.125 12 z "     style="opacity:1;fill:#ffffff;fill-opacity:1;stroke:none;stroke-width:1;stroke-linecap:round;stroke-linejoin:miter;stroke-miterlimit:4;stroke-dasharray:none;stroke-dashoffset:0;stroke-opacity:1" />
  </g>
</svg>

<?xml version="1.0" encoding="utf-8"?>
<!-- Generator: Adobe Illustrator 17.1.0, SVG Export Plug-In . SVG Version: 6.00 Build 0)  -->
<!DOCTYPE svg PUBLIC "-//W3C//DTD SVG 1.1//EN" "http://www.w3.org/Graphics/SVG/1.1/DTD/svg11.dtd">
<svg version="1.1"
	 id="svg2" xmlns:svg="http://www.w3.org/2000/svg" xmlns:cc="http://creativecommons.org/ns#" xmlns:dc="http://purl.org/dc/elements/1.1/" xmlns:rdf="http://www.w3.org/1999/02/22-rdf-syntax-ns#"
	 xmlns="http://www.w3.org/2000/svg" xmlns:xlink="http://www.w3.org/1999/xlink" x="0px" y="0px" width="23px" height="23px"
	 viewBox="0 0 23 23" enable-background="new 0 0 23 23" xml:space="preserve">
<path id="rect4" fill="#FFFFFF" d="M3,0h17c1.7,0,3,1.3,3,3v17c0,1.7-1.3,3-3,3H3c-1.7,0-3-1.3-3-3V3C0,1.3,1.3,0,3,0z"/>
<path id="rect6" fill="#9C8EA4" d="M3,1h17c1.1,0,2,0.9,2,2v17c0,1.1-0.9,2-2,2H3c-1.1,0-2-0.9-2-2V3C1,1.9,1.9,1,3,1z"/>
<g id="g8" transform="translate(4,4)">
	<path id="path5258" fill="#FFFFFF" d="M5.5,0c0,0-0.8,0-1,1L3,6.5V10c0,1,1,1,1,1h7c0,0,1,0,1-1V6.5L10.5,1c-0.3-1-1-1-1-1H5.5z
		 M6.5,1.5h2c0,0,0.5,0,0.8,1L10,6c0.2,1-1,1-1,1H6c0,0-1.2,0-1-1l0.8-3.5C6,1.5,6.5,1.5,6.5,1.5z M5,8c0.6,0,1,0.4,1,1s-0.4,1-1,1
		S4,9.6,4,9S4.4,8,5,8z M6.8,8h1.5c0.1,0,0.2,0.1,0.2,0.2S8.4,8.5,8.2,8.5H6.8c-0.1,0-0.2-0.1-0.2-0.2S6.6,8,6.8,8z M10,8
		c0.6,0,1,0.4,1,1s-0.4,1-1,1S9,9.6,9,9S9.4,8,10,8z M4.1,12L3,15h1.5l0.4-1h5.2l0.4,1H12l-1.1-3H9.4l0.4,1H5.2l0.4-1H4.1z"/>
</g>
</svg>
